Newaita-dark/apps/16/keepass.svg

<svg height="16" viewBox="0 0 16 16" width="16" xmlns="http://www.w3.org/2000/svg" xmlns:xlink="http://www.w3.org/1999/xlink"><linearGradient id="a"><stop offset="0" stop-opacity=".313726"/><stop offset=".222222" stop-opacity=".27451"/><stop offset="1" stop-opacity="0"/></linearGradient><radialGradient id="b" cx="450.908936" cy="189.579361" gradientTransform="matrix(.00000009 -.0390662 -.0703192 -.00000005 22.261576 31.797665)" gradientUnits="userSpaceOnUse" r="21.166656" xlink:href="#a"/><radialGradient id="c" cx="450.908936" cy="189.579361" gradientTransform="matrix(-.00000009 .0390662 .0703192 .00000005 -6.385059 -3.763741)" gradientUnits="userSpaceOnUse" r="21.166656" xlink:href="#a"/><radialGradient id="d" cx="450.908936" cy="189.579361" gradientTransform="matrix(-.00000009 -.0390662 .0703192 -.00000005 -6.385059 31.797665)" gradientUnits="userSpaceOnUse" r="21.166656" xlink:href="#a"/><radialGradient id="e" cx="450.908936" cy="189.579361" gradientTransform="matrix(.00000009 .0390662 -.0703192 .00000005 22.261575 -3.763741)" gradientUnits="userSpaceOnUse" r="21.166656" xlink:href="#a"/><linearGradient id="f" gradientTransform="matrix(.00668003 0 0 .031253 6.232693 6.719392)" gradientUnits="userSpaceOnUse" x1="255.323059" x2="255.323044" y1="233.5" y2="254.666656"><stop offset="0" stop-opacity=".27451"/><stop offset="1" stop-opacity="0"/></linearGradient><linearGradient id="g" gradientUnits="userSpaceOnUse" x1="254" x2="254" y1="-168.666656" y2="233.5"><stop offset="0" stop-color="#7986cb"/><stop offset="1" stop-color="#5c6bc0"/></linearGradient><linearGradient id="h" gradientUnits="userSpaceOnUse" x1="7.9382592" x2="7.9382592" y1="14.01696600048" y2="1.4480552201"><stop offset="0" stop-color="#bdbdbd"/><stop offset="1" stop-color="#e0e0e0"/></linearGradient><path d="m9.097656 14.015625h1.320313v-.660156h-1.320313zm0 0" fill="url(#b)"/><path d="m6.78125 14.015625h-1.324219v.664063h1.324219zm0 0" fill="url(#c)"/><path d="m6.78125 14.015625h-1.324219v-.660156h1.324219zm0 0" fill="url(#d)"/><path d="m9.097656 14.015625h1.320313v.664063h-1.320313zm0 0" fill="url(#e)"/><path d="m6.78125 13.851562h2.316406v.828126h-2.316406zm0 0" fill="url(#f)"/><path d="m253.975747-168.629428c111.114389 0 201.105795 89.991406 201.105795 201.105795 0 110.989401-89.991406 200.980807-201.105795 200.980807-110.989402 0-201.105796-89.991406-201.105796-200.980807 0-111.114389 90.116394-201.105795 201.105796-201.105795zm0 0" fill="url(#g)" stroke="#333" stroke-linecap="round" stroke-width="3" transform="matrix(.031253 0 0 .031253 0 6.719392)"/><path d="m7.9375 14.015625c-3.480469 0-6.285156-2.800781-6.285156-6.28125 0-.023437 0-.042969 0-.0625.035156 3.453125 2.824218 6.222656 6.285156 6.222656s6.253906-2.769531 6.285156-6.222656v.0625c0 3.480469-2.804687 6.28125-6.285156 6.28125zm0 0" fill-opacity=".196078"/><path d="m7.9375 1.449219c-3.480469 0-6.285156 2.800781-6.285156 6.285156v.058594c.035156-3.453125 2.824218-6.222657 6.285156-6.222657s6.253906 2.769532 6.285156 6.222657c0-.019531 0-.039063 0-.058594 0-3.484375-2.804687-6.285156-6.285156-6.285156zm0 0" fill="#fff" fill-opacity=".392157"/><path d="m7.9375 1.402344c-3.507812 0-6.332031 2.824218-6.332031 6.332031 0 3.503906 2.824219 6.328125 6.332031 6.328125s6.332031-2.824219 6.332031-6.328125c0-3.507813-2.824219-6.332031-6.332031-6.332031zm0 .09375c3.457031 0 6.238281 2.78125 6.238281 6.238281 0 3.453125-2.78125 6.234375-6.238281 6.234375s-6.238281-2.78125-6.238281-6.234375c0-3.457031 2.78125-6.238281 6.238281-6.238281zm0 0" fill="#212121"/><path d="m7.925781 3.761719c-.910156 0-1.640625.589843-1.640625 1.324219v1.984374h-.671875c-.179687 0-.328125.132813-.328125.296876v.066406c0 .164062.148438.300781.328125.300781h4.632813c.183594 0 .332031-.136719.332031-.300781v-.066406c0-.164063-.148437-.296876-.332031-.296876h-.652344v-1.984374c0-.734376-.734375-1.324219-1.644531-1.324219zm.011719.664062c.550781 0 .992188.441407.992188.992188v1.652343h-1.984376v-1.652343c0-.550781.441407-.992188.992188-.992188zm-2.324219 3.636719c-.179687 0-.328125.148438-.328125.332031 0 .183594.148438.332031.328125.332031h1.664063v-.664062zm2.988281 0v.664062h1.644532c.183594 0 .332031-.148437.332031-.332031 0-.183593-.148437-.332031-.332031-.332031zm-2.988281.992188c-.179687 0-.328125.148437-.328125.332031 0 .183593.148438.332031.328125.332031h1.664063v-.664062zm2.988281 0v.664062h1.644532c.183594 0 .332031-.148438.332031-.332031 0-.183594-.148437-.332031-.332031-.332031zm-2.988281.992187c-.179687 0-.328125.132813-.328125.300781v.0625c0 .167969.148438.300782.328125.300782h4.632813c.183594 0 .332031-.132813.332031-.300782v-.0625c0-.167968-.148437-.300781-.332031-.300781zm0 0" fill="url(#h)"/><path d="m7.925781 3.761719c-.910156 0-1.640625.589843-1.640625 1.324219v.25c0-.734376.730469-1.324219 1.640625-1.324219h.023438c.910156 0 1.644531.589843 1.644531 1.324219v-.25c0-.734376-.734375-1.324219-1.644531-1.324219zm-2.3125 3.308593c-.179687 0-.328125.132813-.328125.296876v.066406c0 .03125.003906.0625.015625.09375.042969-.121094.167969-.207032.3125-.207032h.671875v-.25zm1.332031 0v.25h1.984376v-.25zm2.648438 0v.25h.652344c.148437 0 .273437.085938.316406.207032.007812-.03125.015625-.0625.015625-.09375v-.066406c0-.164063-.148437-.296876-.332031-.296876zm-3.980469.992188c-.179687 0-.328125.148438-.328125.332031 0 .042969.007813.085938.023438.125.046875-.121093.167968-.207031.304687-.207031h1.664063v-.25zm2.988281 0v.25h1.644532c.140625 0 .257812.085938.308594.207031.011718-.039062.023437-.082031.023437-.125 0-.183593-.148437-.332031-.332031-.332031zm-2.988281.992188c-.179687 0-.328125.148437-.328125.332031 0 .042969.007813.085937.023438.125.046875-.121094.167968-.207031.304687-.207031h1.664063v-.25zm2.988281 0v.25h1.644532c.140625 0 .257812.085937.308594.207031.011718-.039063.023437-.082031.023437-.125 0-.183594-.148437-.332031-.332031-.332031zm-2.988281.992187c-.179687 0-.328125.132813-.328125.300781v.0625c0 .03125.003906.0625.015625.09375.042969-.121094.167969-.207031.3125-.207031h4.632813c.148437 0 .273437.085937.316406.207031.007812-.03125.015625-.0625.015625-.09375v-.0625c0-.167968-.148437-.300781-.332031-.300781zm0 0" fill="#fff" fill-opacity=".392157"/><path d="m7.9375 4.425781c-.550781 0-.992188.441407-.992188.992188v.328125c0-.546875.441407-.992188.992188-.992188s.992188.445313.992188.992188v-.328125c0-.550781-.441407-.992188-.992188-.992188zm-2.617188 3.140625c-.023437.039063-.035156.085938-.035156.132813v.066406c0 .164063.148438.296875.328125.296875h4.632813c.183594 0 .332031-.132812.332031-.296875v-.066406c0-.046875-.015625-.09375-.035156-.132813-.054688.097656-.167969.167969-.296875.167969h-4.632813c-.128906 0-.242187-.070313-.292969-.167969zm.007813.992188c-.027344.050781-.042969.105468-.042969.167968 0 .179688.148438.328126.328125.328126h1.664063v-.328126h-1.664063c-.121093 0-.226562-.066406-.285156-.167968zm5.203125 0c-.054688.101562-.164062.167968-.285156.167968h-1.644532v.328126h1.644532c.183594 0 .332031-.148438.332031-.328126 0-.0625-.015625-.117187-.046875-.167968zm-5.203125.992187c-.027344.050781-.042969.105469-.042969.167969 0 .179688.148438.328125.328125.328125h1.664063v-.328125h-1.664063c-.121093 0-.226562-.066406-.285156-.167969zm5.203125 0c-.054688.101563-.164062.167969-.285156.167969h-1.644532v.328125h1.644532c.183594 0 .332031-.148437.332031-.328125 0-.0625-.015625-.117188-.046875-.167969zm-5.210938.992188c-.023437.039062-.035156.085937-.035156.132812v.066407c0 .164062.148438.296874.328125.296874h4.632813c.183594 0 .332031-.132812.332031-.296874v-.066407c0-.046875-.015625-.09375-.035156-.132812-.054688.097656-.167969.167969-.296875.167969h-4.632813c-.128906 0-.242187-.070313-.292969-.167969zm0 0" fill-opacity=".235294"/><path d="m958.491196 454.917211c-110.068235 0-198.40626 71.331775-198.40626 160.142196v239.977096h-81.252088c-21.730209 0-39.681252 16.061459-39.681252 35.902085v8.03073c0 19.840626 17.951043 36.374481 39.681252 36.374481h560.261488c22.202605 0 40.153648-16.533855 40.153648-36.374481v-8.03073c0-19.840626-17.951043-35.902085-40.153648-35.902085h-78.890108v-239.977096c0-88.810421-88.810422-160.142196-198.878657-160.142196zm1.417188 80.307296c66.607816 0 119.988548 53.380732 119.988548 119.988548v199.823448h-239.977096v-199.823448c0-66.607816 53.380732-119.988548 119.988548-119.988548zm-281.075536 439.800544c-21.730209 0-39.681252 17.951043-39.681252 40.153648 0 22.202606 17.951043 40.153648 39.681252 40.153648h201.240636v-80.307296zm361.382832 0v80.307296h198.878656c22.202605 0 40.153648-17.951042 40.153648-40.153648 0-22.202605-17.951043-40.153648-40.153648-40.153648zm-361.382832 119.988548c-21.730209 0-39.681252 17.951043-39.681252 40.153648 0 22.202606 17.951043 40.153648 39.681252 40.153648h201.240636v-80.307296zm361.382832 0v80.307296h198.878656c22.202605 0 40.153648-17.951042 40.153648-40.153648 0-22.202605-17.951043-40.153648-40.153648-40.153648zm-361.382832 119.988548c-21.730209 0-39.681252 16.061459-39.681252 36.374481v7.558334c0 20.313022 17.951043 36.374481 39.681252 36.374481h560.261488c22.202605 0 40.153648-16.061459 40.153648-36.374481v-7.558334c0-20.313022-17.951043-36.374481-40.153648-36.374481zm0 0" fill="none" stroke="#212121" stroke-linecap="round" stroke-width="11.338583" transform="scale(.00826902)"/></svg>

<?xml version="1.0" encoding="UTF-8"?>
<svg xmlns="http://www.w3.org/2000/svg" xmlns:xlink="http://www.w3.org/1999/xlink" width="16px" height="16px" viewBox="0 0 16 16" version="1.1">
<defs>
<radialGradient id="radial0" gradientUnits="userSpaceOnUse" cx="450.908936" cy="189.579361" fx="450.908936" fy="189.579361" r="21.166656" gradientTransform="matrix(0.0000000870852,-0.0390662,-0.0703192,-0.0000000507693,22.261576,31.797665)">
<stop offset="0" style="stop-color:rgb(0%,0%,0%);stop-opacity:0.313726;"/>
<stop offset="0.222222" style="stop-color:rgb(0%,0%,0%);stop-opacity:0.27451;"/>
<stop offset="1" style="stop-color:rgb(0%,0%,0%);stop-opacity:0;"/>
</radialGradient>
<radialGradient id="radial1" gradientUnits="userSpaceOnUse" cx="450.908936" cy="189.579361" fx="450.908936" fy="189.579361" r="21.166656" gradientTransform="matrix(-0.0000000870852,0.0390662,0.0703192,0.0000000507693,-6.385059,-3.763741)">
<stop offset="0" style="stop-color:rgb(0%,0%,0%);stop-opacity:0.313726;"/>
<stop offset="0.222222" style="stop-color:rgb(0%,0%,0%);stop-opacity:0.27451;"/>
<stop offset="1" style="stop-color:rgb(0%,0%,0%);stop-opacity:0;"/>
</radialGradient>
<radialGradient id="radial2" gradientUnits="userSpaceOnUse" cx="450.908936" cy="189.579361" fx="450.908936" fy="189.579361" r="21.166656" gradientTransform="matrix(-0.0000000870852,-0.0390662,0.0703192,-0.0000000507693,-6.385059,31.797665)">
<stop offset="0" style="stop-color:rgb(0%,0%,0%);stop-opacity:0.313726;"/>
<stop offset="0.222222" style="stop-color:rgb(0%,0%,0%);stop-opacity:0.27451;"/>
<stop offset="1" style="stop-color:rgb(0%,0%,0%);stop-opacity:0;"/>
</radialGradient>
<radialGradient id="radial3" gradientUnits="userSpaceOnUse" cx="450.908936" cy="189.579361" fx="450.908936" fy="189.579361" r="21.166656" gradientTransform="matrix(0.0000000870852,0.0390662,-0.0703192,0.0000000507693,22.261575,-3.763741)">
<stop offset="0" style="stop-color:rgb(0%,0%,0%);stop-opacity:0.313726;"/>
<stop offset="0.222222" style="stop-color:rgb(0%,0%,0%);stop-opacity:0.27451;"/>
<stop offset="1" style="stop-color:rgb(0%,0%,0%);stop-opacity:0;"/>
</radialGradient>
<linearGradient id="linear0" gradientUnits="userSpaceOnUse" x1="255.323059" y1="233.5" x2="255.323044" y2="254.666656" gradientTransform="matrix(0.00668003,0,0,0.031253,6.232693,6.719392)">
<stop offset="0" style="stop-color:rgb(0%,0%,0%);stop-opacity:0.27451;"/>
<stop offset="1" style="stop-color:rgb(0%,0%,0%);stop-opacity:0;"/>
</linearGradient>
<linearGradient id="linear1" gradientUnits="userSpaceOnUse" x1="254" y1="-168.666656" x2="254" y2="233.5" >
<stop offset="0" style="stop-color:rgb(47.450981%,52.549022%,79.607844%);stop-opacity:1;"/>
<stop offset="1" style="stop-color:rgb(36.078432%,41.960785%,75.294119%);stop-opacity:1;"/>
</linearGradient>
<linearGradient id="linear2" gradientUnits="userSpaceOnUse" x1="960" y1="1695.118164" x2="960" y2="175.118118" gradientTransform="matrix(0.00826902,0,0,0.00826902,0,0)">
<stop offset="0" style="stop-color:rgb(74.117649%,74.117649%,74.117649%);stop-opacity:1;"/>
<stop offset="1" style="stop-color:rgb(87.843138%,87.843138%,87.843138%);stop-opacity:1;"/>
</linearGradient>
</defs>
<g id="surface1">
<path style=" stroke:none;fill-rule:nonzero;fill:url(#radial0);" d="M 9.097656 14.015625 L 10.417969 14.015625 L 10.417969 13.355469 L 9.097656 13.355469 Z M 9.097656 14.015625 "/>
<path style=" stroke:none;fill-rule:nonzero;fill:url(#radial1);" d="M 6.78125 14.015625 L 5.457031 14.015625 L 5.457031 14.679688 L 6.78125 14.679688 Z M 6.78125 14.015625 "/>
<path style=" stroke:none;fill-rule:nonzero;fill:url(#radial2);" d="M 6.78125 14.015625 L 5.457031 14.015625 L 5.457031 13.355469 L 6.78125 13.355469 Z M 6.78125 14.015625 "/>
<path style=" stroke:none;fill-rule:nonzero;fill:url(#radial3);" d="M 9.097656 14.015625 L 10.417969 14.015625 L 10.417969 14.679688 L 9.097656 14.679688 Z M 9.097656 14.015625 "/>
<path style=" stroke:none;fill-rule:nonzero;fill:url(#linear0);" d="M 6.78125 13.851562 L 9.097656 13.851562 L 9.097656 14.679688 L 6.78125 14.679688 Z M 6.78125 13.851562 "/>
<path style="fill-rule:nonzero;fill:url(#linear1);stroke-width:3;stroke-linecap:round;stroke-linejoin:miter;stroke:rgb(20%,20%,20%);stroke-opacity:1;stroke-miterlimit:4;" d="M 253.975747 -168.629428 C 365.090136 -168.629428 455.081542 -78.638022 455.081542 32.476367 C 455.081542 143.465768 365.090136 233.457174 253.975747 233.457174 C 142.986345 233.457174 52.869951 143.465768 52.869951 32.476367 C 52.869951 -78.638022 142.986345 -168.629428 253.975747 -168.629428 Z M 253.975747 -168.629428 " transform="matrix(0.031253,0,0,0.031253,0,6.719392)"/>
<path style=" stroke:none;fill-rule:nonzero;fill:rgb(0%,0%,0%);fill-opacity:0.196078;" d="M 7.9375 14.015625 C 4.457031 14.015625 1.652344 11.214844 1.652344 7.734375 C 1.652344 7.710938 1.652344 7.691406 1.652344 7.671875 C 1.6875 11.125 4.476562 13.894531 7.9375 13.894531 C 11.398438 13.894531 14.191406 11.125 14.222656 7.671875 C 14.222656 7.691406 14.222656 7.710938 14.222656 7.734375 C 14.222656 11.214844 11.417969 14.015625 7.9375 14.015625 Z M 7.9375 14.015625 "/>
<path style=" stroke:none;fill-rule:nonzero;fill:rgb(100%,100%,100%);fill-opacity:0.392157;" d="M 7.9375 1.449219 C 4.457031 1.449219 1.652344 4.25 1.652344 7.734375 C 1.652344 7.753906 1.652344 7.773438 1.652344 7.792969 C 1.6875 4.339844 4.476562 1.570312 7.9375 1.570312 C 11.398438 1.570312 14.191406 4.339844 14.222656 7.792969 C 14.222656 7.773438 14.222656 7.753906 14.222656 7.734375 C 14.222656 4.25 11.417969 1.449219 7.9375 1.449219 Z M 7.9375 1.449219 "/>
<path style=" stroke:none;fill-rule:nonzero;fill:rgb(12.941177%,12.941177%,12.941177%);fill-opacity:1;" d="M 7.9375 1.402344 C 4.429688 1.402344 1.605469 4.226562 1.605469 7.734375 C 1.605469 11.238281 4.429688 14.0625 7.9375 14.0625 C 11.445312 14.0625 14.269531 11.238281 14.269531 7.734375 C 14.269531 4.226562 11.445312 1.402344 7.9375 1.402344 Z M 7.9375 1.496094 C 11.394531 1.496094 14.175781 4.277344 14.175781 7.734375 C 14.175781 11.1875 11.394531 13.96875 7.9375 13.96875 C 4.480469 13.96875 1.699219 11.1875 1.699219 7.734375 C 1.699219 4.277344 4.480469 1.496094 7.9375 1.496094 Z M 7.9375 1.496094 "/>
<path style=" stroke:none;fill-rule:nonzero;fill:url(#linear2);" d="M 7.925781 3.761719 C 7.015625 3.761719 6.285156 4.351562 6.285156 5.085938 L 6.285156 7.070312 L 5.613281 7.070312 C 5.433594 7.070312 5.285156 7.203125 5.285156 7.367188 L 5.285156 7.433594 C 5.285156 7.597656 5.433594 7.734375 5.613281 7.734375 L 10.246094 7.734375 C 10.429688 7.734375 10.578125 7.597656 10.578125 7.433594 L 10.578125 7.367188 C 10.578125 7.203125 10.429688 7.070312 10.246094 7.070312 L 9.59375 7.070312 L 9.59375 5.085938 C 9.59375 4.351562 8.859375 3.761719 7.949219 3.761719 Z M 7.9375 4.425781 C 8.488281 4.425781 8.929688 4.867188 8.929688 5.417969 L 8.929688 7.070312 L 6.945312 7.070312 L 6.945312 5.417969 C 6.945312 4.867188 7.386719 4.425781 7.9375 4.425781 Z M 5.613281 8.0625 C 5.433594 8.0625 5.285156 8.210938 5.285156 8.394531 C 5.285156 8.578125 5.433594 8.726562 5.613281 8.726562 L 7.277344 8.726562 L 7.277344 8.0625 Z M 8.601562 8.0625 L 8.601562 8.726562 L 10.246094 8.726562 C 10.429688 8.726562 10.578125 8.578125 10.578125 8.394531 C 10.578125 8.210938 10.429688 8.0625 10.246094 8.0625 Z M 5.613281 9.054688 C 5.433594 9.054688 5.285156 9.203125 5.285156 9.386719 C 5.285156 9.570312 5.433594 9.71875 5.613281 9.71875 L 7.277344 9.71875 L 7.277344 9.054688 Z M 8.601562 9.054688 L 8.601562 9.71875 L 10.246094 9.71875 C 10.429688 9.71875 10.578125 9.570312 10.578125 9.386719 C 10.578125 9.203125 10.429688 9.054688 10.246094 9.054688 Z M 5.613281 10.046875 C 5.433594 10.046875 5.285156 10.179688 5.285156 10.347656 L 5.285156 10.410156 C 5.285156 10.578125 5.433594 10.710938 5.613281 10.710938 L 10.246094 10.710938 C 10.429688 10.710938 10.578125 10.578125 10.578125 10.410156 L 10.578125 10.347656 C 10.578125 10.179688 10.429688 10.046875 10.246094 10.046875 Z M 5.613281 10.046875 "/>
<path style=" stroke:none;fill-rule:nonzero;fill:rgb(100%,100%,100%);fill-opacity:0.392157;" d="M 7.925781 3.761719 C 7.015625 3.761719 6.285156 4.351562 6.285156 5.085938 L 6.285156 5.335938 C 6.285156 4.601562 7.015625 4.011719 7.925781 4.011719 L 7.949219 4.011719 C 8.859375 4.011719 9.59375 4.601562 9.59375 5.335938 L 9.59375 5.085938 C 9.59375 4.351562 8.859375 3.761719 7.949219 3.761719 Z M 5.613281 7.070312 C 5.433594 7.070312 5.285156 7.203125 5.285156 7.367188 L 5.285156 7.433594 C 5.285156 7.464844 5.289062 7.496094 5.300781 7.527344 C 5.34375 7.40625 5.46875 7.320312 5.613281 7.320312 L 6.285156 7.320312 L 6.285156 7.070312 Z M 6.945312 7.070312 L 6.945312 7.320312 L 8.929688 7.320312 L 8.929688 7.070312 Z M 9.59375 7.070312 L 9.59375 7.320312 L 10.246094 7.320312 C 10.394531 7.320312 10.519531 7.40625 10.5625 7.527344 C 10.570312 7.496094 10.578125 7.464844 10.578125 7.433594 L 10.578125 7.367188 C 10.578125 7.203125 10.429688 7.070312 10.246094 7.070312 Z M 5.613281 8.0625 C 5.433594 8.0625 5.285156 8.210938 5.285156 8.394531 C 5.285156 8.4375 5.292969 8.480469 5.308594 8.519531 C 5.355469 8.398438 5.476562 8.3125 5.613281 8.3125 L 7.277344 8.3125 L 7.277344 8.0625 Z M 8.601562 8.0625 L 8.601562 8.3125 L 10.246094 8.3125 C 10.386719 8.3125 10.503906 8.398438 10.554688 8.519531 C 10.566406 8.480469 10.578125 8.4375 10.578125 8.394531 C 10.578125 8.210938 10.429688 8.0625 10.246094 8.0625 Z M 5.613281 9.054688 C 5.433594 9.054688 5.285156 9.203125 5.285156 9.386719 C 5.285156 9.429688 5.292969 9.472656 5.308594 9.511719 C 5.355469 9.390625 5.476562 9.304688 5.613281 9.304688 L 7.277344 9.304688 L 7.277344 9.054688 Z M 8.601562 9.054688 L 8.601562 9.304688 L 10.246094 9.304688 C 10.386719 9.304688 10.503906 9.390625 10.554688 9.511719 C 10.566406 9.472656 10.578125 9.429688 10.578125 9.386719 C 10.578125 9.203125 10.429688 9.054688 10.246094 9.054688 Z M 5.613281 10.046875 C 5.433594 10.046875 5.285156 10.179688 5.285156 10.347656 L 5.285156 10.410156 C 5.285156 10.441406 5.289062 10.472656 5.300781 10.503906 C 5.34375 10.382812 5.46875 10.296875 5.613281 10.296875 L 10.246094 10.296875 C 10.394531 10.296875 10.519531 10.382812 10.5625 10.503906 C 10.570312 10.472656 10.578125 10.441406 10.578125 10.410156 L 10.578125 10.347656 C 10.578125 10.179688 10.429688 10.046875 10.246094 10.046875 Z M 5.613281 10.046875 "/>
<path style=" stroke:none;fill-rule:nonzero;fill:rgb(0%,0%,0%);fill-opacity:0.235294;" d="M 7.9375 4.425781 C 7.386719 4.425781 6.945312 4.867188 6.945312 5.417969 L 6.945312 5.746094 C 6.945312 5.199219 7.386719 4.753906 7.9375 4.753906 C 8.488281 4.753906 8.929688 5.199219 8.929688 5.746094 L 8.929688 5.417969 C 8.929688 4.867188 8.488281 4.425781 7.9375 4.425781 Z M 5.320312 7.566406 C 5.296875 7.605469 5.285156 7.652344 5.285156 7.699219 L 5.285156 7.765625 C 5.285156 7.929688 5.433594 8.0625 5.613281 8.0625 L 10.246094 8.0625 C 10.429688 8.0625 10.578125 7.929688 10.578125 7.765625 L 10.578125 7.699219 C 10.578125 7.652344 10.5625 7.605469 10.542969 7.566406 C 10.488281 7.664062 10.375 7.734375 10.246094 7.734375 L 5.613281 7.734375 C 5.484375 7.734375 5.371094 7.664062 5.320312 7.566406 Z M 5.328125 8.558594 C 5.300781 8.609375 5.285156 8.664062 5.285156 8.726562 C 5.285156 8.90625 5.433594 9.054688 5.613281 9.054688 L 7.277344 9.054688 L 7.277344 8.726562 L 5.613281 8.726562 C 5.492188 8.726562 5.386719 8.660156 5.328125 8.558594 Z M 10.53125 8.558594 C 10.476562 8.660156 10.367188 8.726562 10.246094 8.726562 L 8.601562 8.726562 L 8.601562 9.054688 L 10.246094 9.054688 C 10.429688 9.054688 10.578125 8.90625 10.578125 8.726562 C 10.578125 8.664062 10.5625 8.609375 10.53125 8.558594 Z M 5.328125 9.550781 C 5.300781 9.601562 5.285156 9.65625 5.285156 9.71875 C 5.285156 9.898438 5.433594 10.046875 5.613281 10.046875 L 7.277344 10.046875 L 7.277344 9.71875 L 5.613281 9.71875 C 5.492188 9.71875 5.386719 9.652344 5.328125 9.550781 Z M 10.53125 9.550781 C 10.476562 9.652344 10.367188 9.71875 10.246094 9.71875 L 8.601562 9.71875 L 8.601562 10.046875 L 10.246094 10.046875 C 10.429688 10.046875 10.578125 9.898438 10.578125 9.71875 C 10.578125 9.65625 10.5625 9.601562 10.53125 9.550781 Z M 5.320312 10.542969 C 5.296875 10.582031 5.285156 10.628906 5.285156 10.675781 L 5.285156 10.742188 C 5.285156 10.90625 5.433594 11.039062 5.613281 11.039062 L 10.246094 11.039062 C 10.429688 11.039062 10.578125 10.90625 10.578125 10.742188 L 10.578125 10.675781 C 10.578125 10.628906 10.5625 10.582031 10.542969 10.542969 C 10.488281 10.640625 10.375 10.710938 10.246094 10.710938 L 5.613281 10.710938 C 5.484375 10.710938 5.371094 10.640625 5.320312 10.542969 Z M 5.320312 10.542969 "/>
<path style="fill:none;stroke-width:11.338583;stroke-linecap:round;stroke-linejoin:miter;stroke:rgb(12.941177%,12.941177%,12.941177%);stroke-opacity:1;stroke-miterlimit:4;" d="M 958.491196 454.917211 C 848.422961 454.917211 760.084936 526.248986 760.084936 615.059407 L 760.084936 855.036503 L 678.832848 855.036503 C 657.102639 855.036503 639.151596 871.097962 639.151596 890.938588 L 639.151596 898.969318 C 639.151596 918.809944 657.102639 935.343799 678.832848 935.343799 L 1239.094336 935.343799 C 1261.296941 935.343799 1279.247984 918.809944 1279.247984 898.969318 L 1279.247984 890.938588 C 1279.247984 871.097962 1261.296941 855.036503 1239.094336 855.036503 L 1160.204228 855.036503 L 1160.204228 615.059407 C 1160.204228 526.248986 1071.393806 454.917211 961.325571 454.917211 Z M 959.908384 535.224507 C 1026.5162 535.224507 1079.896932 588.605239 1079.896932 655.213055 L 1079.896932 855.036503 L 839.919836 855.036503 L 839.919836 655.213055 C 839.919836 588.605239 893.300568 535.224507 959.908384 535.224507 Z M 678.832848 975.025051 C 657.102639 975.025051 639.151596 992.976094 639.151596 1015.178699 C 639.151596 1037.381305 657.102639 1055.332347 678.832848 1055.332347 L 880.073484 1055.332347 L 880.073484 975.025051 Z M 1040.21568 975.025051 L 1040.21568 1055.332347 L 1239.094336 1055.332347 C 1261.296941 1055.332347 1279.247984 1037.381305 1279.247984 1015.178699 C 1279.247984 992.976094 1261.296941 975.025051 1239.094336 975.025051 Z M 678.832848 1095.013599 C 657.102639 1095.013599 639.151596 1112.964642 639.151596 1135.167247 C 639.151596 1157.369853 657.102639 1175.320895 678.832848 1175.320895 L 880.073484 1175.320895 L 880.073484 1095.013599 Z M 1040.21568 1095.013599 L 1040.21568 1175.320895 L 1239.094336 1175.320895 C 1261.296941 1175.320895 1279.247984 1157.369853 1279.247984 1135.167247 C 1279.247984 1112.964642 1261.296941 1095.013599 1239.094336 1095.013599 Z M 678.832848 1215.002147 C 657.102639 1215.002147 639.151596 1231.063606 639.151596 1251.376628 L 639.151596 1258.934962 C 639.151596 1279.247984 657.102639 1295.309443 678.832848 1295.309443 L 1239.094336 1295.309443 C 1261.296941 1295.309443 1279.247984 1279.247984 1279.247984 1258.934962 L 1279.247984 1251.376628 C 1279.247984 1231.063606 1261.296941 1215.002147 1239.094336 1215.002147 Z M 678.832848 1215.002147 " transform="matrix(0.00826902,0,0,0.00826902,0,0)"/>
</g>
</svg>
